X: 33
T:Newcastle Hornpipe. WCa.33
M:C|
Q:160
S:Wm. Calvert MS, 1812, Leyburn, Yorks.
R:hornpipe
O:England
A:North Yorkshire
Z:vmp.Chris Partington, May 2003
K:G
g2|B2B2BcdB|G2G2GABc|dBdB gdcB|cBAG GFED|!
B2B2Bdce|d2d2d2B2|BAGF GEDC|D2D2D2::!
B2|c2c2c2AB|cBAG FEDC|B,DGBg2d2|ecAG GFED|!
e2e2efge|dBge dBAG|AccA BdFA|G2G2G2:||
